X:1
T:By Grace Are Ye Saved
T:By Grace Are Ye Saved
T:James McGranahan
T:Daniel Webster Whittle, 1885
T:Public Domain Courtesy of the Cyber Hymnal™
T:Public Domain Courtesy of the Cyber Hymnal™
C:James McGranahan
Z:Public Domain
Z:Courtesy of the Cyber Hymnal™
%%score ( 1 2 ) ( 3 4 )
L:1/8
Q:1/4=117
M:4/4
K:D
V:1 treble 
V:2 treble 
V:3 bass 
V:4 bass 
V:1
 A2"^Maestoso" | A3 A [GB]2 [Gc]2 | [Fd]6 [Fd]2 | [Gd]3 [Gd] [Gc]2 [GB]2 | [FA]6 [E^A]2 | %5
w: 1.~In|grace the ho- ly|God Did|full sal- va- tion|plan, E-|
w: 2.~This|grace of God ap-|pears In|Je- sus Christ His|Son; He,|
w: 3.~To|all who do be-|lieve In|God, thro’ Christ re-|vealed By|
 [DB]3 [DB] [DB]2 [Ec]2 | [Fd]3 [Fd] [Fd]2 [Fd]2 |!f! [Ae]3 [^GB] ([Ae][Ed]) ([Ec][DB]) | [CA]6 || %9
w: lect- ing in His|sov- ereign grace To|save re- bel- * lious *|man.|
w: lift- ed on the|cross of shame, The|grace of God * makes *|known.|
w: grace, they full sal-|va- tion have, And|“Sons of God” * are *|sealed.|
"^Refrain" [GA]2 | [FA]2 [DF]>[EG] [FA]2 [GB]2 | [FA]6 ([Bd]>[Ac]) | [GB]2 z4 ([Ac]>[GB]) | %13
w: ||||
w: By|grace are ye saved thro’|faith, Thro’ *|faith, thro’ *|
w: ||||
 [FA]2 z4 [FA]2 | [GB]3 [GB] [^GB]2 (3[GB][Gc][Gd] | c6 [Ec]2 | [Ed]3 [Ec] [EB]2 (3[Ed][Ec][DB] | %17
w: ||||
w: faith, Thro’|faith, and that not of your-|selves; Thro’|faith, and that not of your-|
w: ||||
 (A2 AA A2) AA | A8- | (!fermata!A2 z2) x6 | d8 | [=cd]6 [cd][cd] | [Bd]2 [Bd]2 [GB][Bd][Ac][GB] | %23
w: ||||||
w: selves; * * * Not of|works,||not|of works, Not|of works, not of works, Not|
w: ||||||
 (A2 d2 [Af]2) [Fd]2 | [Ae]3 [Ae] [Ae]2 [Ae]2 | [Af]6 [=cd][cd] | [Bd]2 [Bd]2 [GB][Bd][Ac][GB] | %27
w: ||||
w: of * * works,|lest an- y man|should boast; It|is the gift of God; Not|
w: ||||
 (A2 d2 [Af]2) [Ad]2 | [Ge]3 [Ge] [Fd]2 [Ec]2 | [Fd]6 z [Fd] | [Ec][Ec][Ec][Ec] [Fd]2 z [Fd] | %31
w: ||||
w: of * * works,|lest an- y man|should boast;|It is the gift of God,|
w: ||||
 [Ec][Ec][Ec][Ec] [Fd]2 z [Fd] | [Gc][Gc][Gc][Gc] [Fd]2 z2 | z6"^Largo" [Fd]2 | [Af]8 | %35
w: ||||
w: It is the gift of God,|It is the gift of|God,|It|
w: ||||
 ([Ae-]2 [Gea]6) | [Fd]8- | [Fd]6 |] %38
w: |||
w: is *|the||
w: |||
V:2
 A2 | A3 A x4 | x8 | x8 | x8 | x8 | x8 | x8 | x6 || x2 | x8 | x8 | x8 | x8 | x8 | (A2 E4) x2 | x8 | %17
 C6 x2 | A8- | A2 (dd d4) DE | F2 FG A2 AB | x8 | x8 | F4 x4 | x8 | x8 | x8 | F4 x4 | x8 | x8 | %30
 x8 | x8 | x8 | x8 | x8 | x8 | x8 | x6 |] %38
V:3
 A,2 | A,3 [F,D] [G,D]2 [E,A,]2 | [D,A,]6 [D,=C]2 | [G,,B,]3 [G,,B,] [A,,A,]2 [C,A,]2 | %4
w: ~|~ ~ ~ ~|~ ~|~ ~ ~ ~|
 [D,A,]6 [C,F,]2 | [B,,F,]3 [B,,F,] [B,,F,]2 [A,,A,]2 | [D,A,]3 [D,A,] [D,A,]2 [B,,B,]2 | %7
w: ~ ~|~ ~ ~ ~|~ ~ ~ ~|
 [E,C]3 [E,D] (CB,) (A,^G,) | [A,,A,]6 || z2 | z8 | z8 | z2 ([G,B,]>[F,A,]) [E,G,]2 z2 | %13
w: ~ ~ ~ * ~ *|~||||Thro’ * faith,|
 z2 ([F,A,]>[E,G,]) [D,F,]2 [D,D]2 | [G,D]3 [G,D] [E,D]2 (3[E,D][E,C][E,B,] | A,6 A,2 | %16
w: thro’ * faith, ~|~ ~ ~ ~ ~ ~|~ ~|
 [E,B,]3 [E,C] [E,D]2 (3[E,^G,][E,G,][E,G,] | [A,,A,]6 [A,,A,][B,,A,] | %18
w: ~ ~ ~ ~ ~ ~|~ Not of|
 [C,A,]2 [C,A,][D,B,] [E,C]2 [E,C][F,D] | !fermata![E,E]2 DD z2 x4 | D8- | [A,D]6 [F,D][F,D] | %22
w: works, not of works, not of|works, not of||works, * *|
 [G,D]2 [G,D]2 [G,D][G,D][G,D][G,D] | D2 A,2 D2 [D,A,]2 | [A,,C]3 [A,,C] [A,,C]2 [A,C]2 | %25
w: |||
 [D,D]6 [F,D][F,D] | [G,D]2 [G,D]2 [G,D][G,D][G,D][G,D] | (D2 A,2 D2) [F,D]2 | %28
w: |||
 [G,B,]3 [G,B,] A,2 [A,,A,]2 | [D,A,]6 z [D,A,] | [A,,A,][A,,A,][A,,A,][A,,A,] [D,A,]2 z [D,A,] | %31
w: |||
 [A,,A,][A,,A,][A,,A,][A,,A,] [D,A,]2 z [D,A,] | [E,A,][E,A,][A,,A,][A,,A,] [D,A,]2 z2 | %33
w: ||
 z6 [D,A,]2 | [D,D]8 | (C6 A,2) | [D,A,]8- | [D,A,]6 |] %38
w: |||||
V:4
 A,2 | A,3 x5 | x8 | x8 | x8 | x8 | x8 | x4 E,2 E,2 | x6 || x2 | x8 | x8 | x8 | x8 | x8 | A,6 A,2 | %16
 x8 | x8 | x8 | x4 (D4- B,,)C, | D,2 D,E, F,2 F,G, | x8 | x8 | D,6 x2 | x8 | x8 | x8 | D,6 x2 | %28
 x4 A,2 x2 | x8 | x8 | x8 | x8 | x8 | x8 | A,,8 | x8 | x6 |] %38

